X: 32088
T: Pepin Arsenault
R: reel
M: 4/4
K: Edorian
BE3 BABd|edeB dAFD|BE3 BABd|FDAF EFGA|
BE3 BABd|edeB dAFD|BE3 BABd|FDAF E3f||
ge3 geBc|dcdA FDFA|ge3 geBc|dBAF BE E2|
ge3 geBc|dcdA FDFA|GE3 FD D2|FDAF E3A||

